X: 11274
T: Dwyer's
R: hornpipe
M: 4/4
K: Dmajor
A3 G|:F2 D2 D>FE>D|C<E A,2 A,2 A>G|F>GE>F D3 e|f>de>c d>AB>G|
(3FGF D2 D>FE>D|C<E A,2 A,2 A>F|D>FA>d B>GE>C|1 (3DED C>E D2 A>G:|2 (3DED C>E D2 d>e||
|:f<Bf>g f>dB>d|c>Ae>c d>cB>A|^G>AB>c d>fe>d|(3cdc A2 A2 d>e|
f<Bf>g f>dB>d|c>Ae>c d>cB>A|(3Bcd c>e d>AB>G|1 F2 D2 D2 d>e:|2 F2 D2 D>EF>G||
|:AF~F2 DF~F2|AF~F2 D>FA>F|GE~E2 CE~E2|GE~E2 C>EA>G|
F>DA>F G>AB>d|(3cBA e>c d>cd>e|f>de>c d>AB>G|1 F2 D2 D>EF>G:|2 F2 D2 D2||

